@extra/phlat-icons/symbolic-24/software-update-none.svg

<svg xmlns="http://www.w3.org/2000/svg" version="1.1" viewBox="-4 -4 24 24"><path opacity=".5" d="m8 0.063l-2.25 3.406-3.438-1.156 1.158 3.437-3.407 2.25 3.406 2.25-1.156 3.438 3.437-1.158 2.25 3.407 2.25-3.406 3.438 1.156-1.157-3.437 3.406-2.25-3.406-2.25 1.156-3.438-3.437 1.158zm0 4.53l0.719 0.688 2 2c0.223 0.226 0.331 0.561 0.281 0.875v0.844h-0.875a1.032 1.032 0 0 1 -0.844 -0.281l-0.281-0.281v2.562h-2v-2.563l-0.281 0.282a1.036 1.036 0 0 1 -0.719 0.281h-1v-0.781a1.464 1.464 0 0 1 0 -0.094c-0.04-0.304 0.067-0.624 0.281-0.844l2-2z" fill-rule="evenodd" fill="#f1f2f2"/></svg>

<svg xmlns="http://www.w3.org/2000/svg" viewBox="-4 -4 24 24">
    <path opacity=".5" d="M8 .063L5.75 3.469 2.312 2.313 3.47 5.75.063 8l3.406 2.25-1.156 3.438L5.75 12.53 8 15.937l2.25-3.406 3.438 1.156-1.157-3.437L15.937 8l-3.406-2.25 1.156-3.438L10.25 3.47zm0 4.53l.719.688 2 2c.223.226.331.561.281.875V9h-.875a1.032 1.032 0 0 1-.844-.281L9 8.438V11H7V8.437l-.281.282A1.036 1.036 0 0 1 6 9H5v-.781a1.464 1.464 0 0 1 0-.094c-.04-.304.067-.624.281-.844l2-2z" fill-rule="evenodd" fill="#f1f2f2"/>
</svg>
